img/quality-features-3.svg

<svg width="54" height="57" viewBox="0 0 54 57" fill="none" xmlns="http://www.w3.org/2000/svg">
<path d="M28.227 57.0001C28.181 57.0001 28.136 57.0001 28.09 57.0001C26.1735 56.9988 24.2633 56.7781 22.397 56.3422C22.1526 56.2846 21.941 56.1324 21.8087 55.9191C21.6763 55.7057 21.634 55.4486 21.691 55.2041C21.7171 55.0828 21.7671 54.968 21.8381 54.8662C21.9091 54.7645 21.9996 54.6778 22.1044 54.6115C22.2093 54.5451 22.3263 54.5003 22.4486 54.4796C22.571 54.459 22.6962 54.4628 22.817 54.4911C24.2906 54.8306 25.7936 55.0269 27.305 55.0771V53.2001C27.3009 53.0741 27.3221 52.9486 27.3675 52.8311C27.4129 52.7135 27.4814 52.6063 27.5691 52.5157C27.6567 52.4252 27.7617 52.3531 27.8777 52.304C27.9937 52.2548 28.1185 52.2295 28.2445 52.2295C28.3705 52.2295 28.4952 52.2548 28.6113 52.304C28.7273 52.3531 28.8323 52.4252 28.9199 52.5157C29.0076 52.6063 29.0761 52.7135 29.1215 52.8311C29.1668 52.9486 29.1881 53.0741 29.184 53.2001V55.0691C32.6191 54.9112 35.9756 53.9888 39.009 52.3691L38.083 50.7482C37.9571 50.53 37.9226 50.2708 37.987 50.0272C38.0514 49.7837 38.2096 49.5755 38.427 49.4481C38.5338 49.3856 38.6519 49.345 38.7745 49.3286C38.8972 49.3122 39.0218 49.3205 39.1412 49.3528C39.2607 49.3851 39.3724 49.4408 39.4701 49.5167C39.5677 49.5927 39.6493 49.6874 39.71 49.7952L40.633 51.4131C43.58 49.5188 46.0726 46.9976 47.933 44.0292L46.333 43.0951C46.116 42.9674 45.9582 42.7593 45.8938 42.5159C45.8294 42.2725 45.8636 42.0135 45.989 41.7952C46.0498 41.6875 46.1314 41.5928 46.2291 41.517C46.3267 41.4411 46.4385 41.3854 46.5579 41.3531C46.6772 41.3209 46.8019 41.3127 46.9245 41.329C47.0471 41.3453 47.1652 41.3857 47.272 41.4481L48.872 42.3851C50.5006 39.2619 51.415 35.8159 51.549 32.2961H49.7C49.4481 32.2961 49.2064 32.196 49.0283 32.0178C48.8501 31.8397 48.75 31.598 48.75 31.3461C48.75 31.0941 48.8501 30.8525 49.0283 30.6743C49.2064 30.4962 49.4481 30.3961 49.7 30.3961H51.556C51.422 26.877 50.5076 23.4316 48.879 20.3091L47.279 21.2451C47.1369 21.3289 46.975 21.3731 46.81 21.3732C46.6445 21.373 46.4819 21.3288 46.3389 21.2454C46.1959 21.1619 46.0776 21.0421 45.996 20.8981C45.8704 20.68 45.8359 20.4212 45.9 20.1779C45.964 19.9345 46.1214 19.7262 46.338 19.5981L47.938 18.6652C46.0776 15.6964 43.585 13.1747 40.638 11.2802L39.715 12.8981C39.6336 13.0425 39.5151 13.1626 39.3719 13.2461C39.2287 13.3296 39.0658 13.3734 38.9 13.3732C38.7352 13.3735 38.5732 13.3296 38.431 13.2461C38.2139 13.1185 38.0558 12.9105 37.9912 12.6671C37.9266 12.4237 37.9607 12.1646 38.086 11.9462L39.013 10.3241C35.9797 8.70427 32.6231 7.7819 29.188 7.62415V9.49512C29.188 9.74442 29.0889 9.98351 28.9127 10.1598C28.7364 10.3361 28.4973 10.4352 28.248 10.4352C27.9987 10.4352 27.7596 10.3361 27.5833 10.1598C27.407 9.98351 27.308 9.74442 27.308 9.49512V7.61816C27.032 7.63116 26.748 7.64912 26.44 7.67212L25.431 7.75012C24.5526 7.85272 23.6805 8.00427 22.819 8.2041C22.6981 8.23195 22.5729 8.2355 22.4507 8.2146C22.3284 8.1937 22.2116 8.14881 22.1068 8.0824C22.0021 8.01598 21.9116 7.92942 21.8405 7.82776C21.7695 7.72609 21.7193 7.61131 21.693 7.49011C21.636 7.2456 21.6783 6.98849 21.8107 6.77515C21.943 6.5618 22.1546 6.40971 22.399 6.35217C23.3975 6.12169 24.409 5.95168 25.428 5.84314V4.74316H24.019C23.3977 4.73041 22.8061 4.47456 22.3712 4.03064C21.9363 3.58672 21.6927 2.9901 21.6927 2.36865C21.6927 1.7472 21.9363 1.15046 22.3712 0.706543C22.8061 0.262626 23.3977 0.00689183 24.019 -0.00585938H32.476C33.0973 0.00689183 33.6889 0.262626 34.1238 0.706543C34.5587 1.15046 34.8022 1.7472 34.8022 2.36865C34.8022 2.9901 34.5587 3.58672 34.1238 4.03064C33.6889 4.47456 33.0973 4.73041 32.476 4.74316H31.067V5.87512C34.4724 6.27964 37.7582 7.38047 40.72 9.10913C40.74 9.12013 40.761 9.11813 40.78 9.13013C40.799 9.14213 40.809 9.16012 40.827 9.17212C42.4543 10.1304 43.9699 11.2668 45.346 12.5602L47.365 10.5211L46.036 9.17615L50.023 5.14612L54.009 9.17615L50.023 13.2062L48.694 11.8632L46.676 13.9031C47.957 15.2981 49.0804 16.83 50.026 18.4711C50.039 18.4881 50.056 18.5001 50.067 18.5181C50.078 18.5361 50.077 18.5591 50.087 18.5791C52.3014 22.4688 53.4659 26.8677 53.4659 31.3436C53.4659 35.8195 52.3014 40.2184 50.087 44.1082C50.077 44.1282 50.078 44.1491 50.067 44.1681C50.056 44.1871 50.028 44.2172 50.01 44.2432C47.7976 48.0729 44.6342 51.2669 40.826 53.5161C40.808 53.5281 40.798 53.5461 40.779 53.5571C40.7504 53.5714 40.721 53.5841 40.691 53.5951C36.9177 55.7917 32.635 56.9619 28.269 56.9891C28.261 56.9891 28.255 56.9891 28.246 56.9891C28.237 56.9891 28.233 57.0001 28.227 57.0001ZM48.688 9.18616L50.018 10.5311L51.346 9.18616L50.018 7.84216L48.688 9.18616ZM29.188 5.7251V2.8551H32.477C32.603 2.8551 32.7238 2.80502 32.8129 2.71594C32.9019 2.62686 32.952 2.5061 32.952 2.38013C32.952 2.25415 32.9019 2.13327 32.8129 2.04419C32.7238 1.95511 32.603 1.90515 32.477 1.90515H24.02C23.894 1.90515 23.7732 1.95511 23.6841 2.04419C23.5951 2.13327 23.545 2.25415 23.545 2.38013C23.545 2.5061 23.5951 2.62686 23.6841 2.71594C23.7732 2.80502 23.894 2.8551 24.02 2.8551H27.3V5.7251C27.413 5.7201 27.516 5.72514 27.625 5.71814C27.779 5.71814 27.933 5.70508 28.087 5.70508H28.158H28.24C28.544 5.70008 28.856 5.70609 29.183 5.72009L29.188 5.7251ZM13.213 48.4541C12.9611 48.4541 12.7194 48.3541 12.5413 48.1759C12.3631 47.9977 12.263 47.7561 12.263 47.5042C12.263 47.2522 12.3631 47.0106 12.5413 46.8324C12.7194 46.6542 12.9611 46.5541 13.213 46.5541H19.79C20.0419 46.5541 20.2836 46.6542 20.4617 46.8324C20.6399 47.0106 20.74 47.2522 20.74 47.5042C20.74 47.7561 20.6399 47.9977 20.4617 48.1759C20.2836 48.3541 20.0419 48.4541 19.79 48.4541H13.213ZM7.57501 41.8041C7.32306 41.8041 7.08142 41.704 6.90326 41.5259C6.7251 41.3477 6.625 41.1061 6.625 40.8541C6.625 40.6022 6.7251 40.3605 6.90326 40.1824C7.08142 40.0042 7.32306 39.9042 7.57501 39.9042H19.791C20.043 39.9042 20.2846 40.0042 20.4628 40.1824C20.6409 40.3605 20.741 40.6022 20.741 40.8541C20.741 41.1061 20.6409 41.3477 20.4628 41.5259C20.2846 41.704 20.043 41.8041 19.791 41.8041H7.57501ZM26.41 35.1122C26.0677 34.7645 25.804 34.3474 25.6368 33.889C25.4695 33.4307 25.4026 32.9419 25.4405 32.4554C25.4784 31.969 25.6203 31.4964 25.8566 31.0696C26.0928 30.6427 26.418 30.2715 26.81 29.9811L38.975 21.0812C39.1559 20.9496 39.3781 20.8872 39.6011 20.9055C39.8241 20.9239 40.033 21.0217 40.19 21.1812C40.3484 21.3414 40.4453 21.5523 40.4636 21.7769C40.4818 22.0014 40.4204 22.2254 40.29 22.4092L31.49 34.7091C31.2075 35.1047 30.8419 35.4338 30.4189 35.6732C29.9958 35.9126 29.5256 36.0566 29.041 36.0951C28.952 36.1021 28.865 36.1061 28.777 36.1061C28.335 36.1057 27.8976 36.0171 27.4904 35.8456C27.0831 35.674 26.7141 35.4231 26.405 35.1072L26.41 35.1122ZM27.91 31.5171C27.6492 31.7069 27.4573 31.9764 27.3633 32.2849C27.2692 32.5934 27.2782 32.9241 27.3888 33.2271C27.4994 33.53 27.7056 33.7887 27.9763 33.9641C28.2469 34.1395 28.5673 34.222 28.889 34.1991C29.1016 34.1821 29.308 34.1188 29.4937 34.0138C29.6793 33.9088 29.8398 33.7645 29.964 33.5911L35.331 26.0911L27.91 31.5171ZM1.93402 35.1531C1.68207 35.1531 1.44043 35.053 1.26227 34.8749C1.08411 34.6967 0.984009 34.4551 0.984009 34.2031C0.984009 33.9512 1.08411 33.7095 1.26227 33.5314C1.44043 33.3532 1.68207 33.2532 1.93402 33.2532H19.788C20.04 33.2532 20.2816 33.3532 20.4598 33.5314C20.6379 33.7095 20.738 33.9512 20.738 34.2031C20.738 34.4551 20.6379 34.6967 20.4598 34.8749C20.2816 35.053 20.04 35.1531 19.788 35.1531H1.93402ZM5.69299 28.5042C5.44104 28.5042 5.1994 28.404 5.02124 28.2258C4.84308 28.0477 4.74298 27.806 4.74298 27.5541C4.74298 27.3021 4.84308 27.0605 5.02124 26.8823C5.1994 26.7042 5.44104 26.6041 5.69299 26.6041H19.788C20.04 26.6041 20.2816 26.7042 20.4598 26.8823C20.6379 27.0605 20.738 27.3021 20.738 27.5541C20.738 27.806 20.6379 28.0477 20.4598 28.2258C20.2816 28.404 20.04 28.5042 19.788 28.5042H5.69299ZM10.393 21.8531C10.141 21.8531 9.89941 21.753 9.72125 21.5748C9.54309 21.3967 9.44299 21.155 9.44299 20.9031C9.44299 20.6511 9.54309 20.4095 9.72125 20.2313C9.89941 20.0532 10.141 19.9531 10.393 19.9531H19.793C20.045 19.9531 20.2866 20.0532 20.4647 20.2313C20.6429 20.4095 20.743 20.6511 20.743 20.9031C20.743 21.155 20.6429 21.3967 20.4647 21.5748C20.2866 21.753 20.045 21.8531 19.793 21.8531H10.393ZM15.093 15.2031C14.8411 15.2031 14.5994 15.1031 14.4213 14.9249C14.2431 14.7468 14.143 14.5051 14.143 14.2532C14.143 14.0012 14.2431 13.7596 14.4213 13.5814C14.5994 13.4033 14.8411 13.3031 15.093 13.3031H19.793C20.045 13.3031 20.2866 13.4033 20.4647 13.5814C20.6429 13.7596 20.743 14.0012 20.743 14.2532C20.743 14.5051 20.6429 14.7468 20.4647 14.9249C20.2866 15.1031 20.045 15.2031 19.793 15.2031H15.093Z" fill="#FF4361"/>
</svg>

<svg width="54" height="57" fill="none" xmlns="http://www.w3.org/2000/svg"><path d="M28.227 57h-.137a25.106 25.106 0 0 1-5.693-.658.948.948 0 0 1-.706-1.138.934.934 0 0 1 1.126-.713 23.46 23.46 0 0 0 4.488.586V53.2a.939.939 0 1 1 1.879 0v1.87a23.112 23.112 0 0 0 9.825-2.7l-.926-1.622a.955.955 0 0 1 .692-1.42.931.931 0 0 1 .935.467l.923 1.618a23.808 23.808 0 0 0 7.3-7.384l-1.6-.934a.956.956 0 0 1 .225-1.742.935.935 0 0 1 .714.095l1.6.937a23.777 23.777 0 0 0 2.677-10.089H49.7a.95.95 0 0 1 0-1.9h1.856a23.768 23.768 0 0 0-2.677-10.087l-1.6.936a.924.924 0 0 1-.94 0 .955.955 0 0 1 0-1.647l1.599-.933a23.81 23.81 0 0 0-7.3-7.385l-.923 1.618a.934.934 0 0 1-1.284.348.956.956 0 0 1-.345-1.3l.927-1.622a23.108 23.108 0 0 0-9.825-2.7v1.871a.94.94 0 0 1-1.88 0V7.618c-.276.013-.56.031-.868.054l-1.009.078c-.878.103-1.75.254-2.612.454a.937.937 0 0 1-1.126-.714.948.948 0 0 1 .706-1.138c.998-.23 2.01-.4 3.029-.509v-1.1h-1.409a2.375 2.375 0 0 1 0-4.749h8.457a2.375 2.375 0 0 1 0 4.75h-1.409v1.131A25 25 0 0 1 40.72 9.11c.02.011.041.01.06.021.019.012.029.03.047.042a25.468 25.468 0 0 1 4.519 3.388l2.019-2.039-1.329-1.345 3.987-4.03 3.986 4.03-3.986 4.03-1.329-1.343-2.018 2.04a25.79 25.79 0 0 1 3.35 4.568c.013.017.03.03.041.047.011.018.01.041.02.061a25.8 25.8 0 0 1 0 25.53c-.01.02-.009.04-.02.06-.011.018-.039.048-.057.074a25.7 25.7 0 0 1-9.184 9.273c-.018.012-.028.03-.047.041a.855.855 0 0 1-.088.038 25 25 0 0 1-12.422 3.394h-.023c-.009 0-.013.011-.019.011ZM48.688 9.186l1.33 1.345 1.328-1.345-1.328-1.344-1.33 1.344Zm-19.5-3.46v-2.87h3.289a.475.475 0 0 0 0-.95H24.02a.475.475 0 1 0 0 .95h3.28v2.87c.113-.006.216 0 .325-.008.154 0 .308-.013.462-.013h.153c.304-.005.616.001.943.015l.005.005ZM13.213 48.453a.95.95 0 1 1 0-1.9h6.577a.95.95 0 0 1 0 1.9h-6.577Zm-5.638-6.65a.95.95 0 0 1 0-1.9h12.216a.95.95 0 1 1 0 1.9H7.575Zm18.835-6.692a3.408 3.408 0 0 1 .4-5.13l12.165-8.9a.935.935 0 0 1 1.215.1.958.958 0 0 1 .1 1.227l-8.8 12.3a3.334 3.334 0 0 1-4 1.137 3.324 3.324 0 0 1-1.085-.739l.005.005Zm1.5-3.595a1.485 1.485 0 0 0 .979 2.682 1.466 1.466 0 0 0 1.075-.608l5.367-7.5-7.421 5.426ZM1.934 35.153a.95.95 0 0 1 0-1.9h17.854a.95.95 0 1 1 0 1.9H1.934Zm3.759-6.649a.95.95 0 0 1 0-1.9h14.095a.95.95 0 0 1 0 1.9H5.693Zm4.7-6.65a.95.95 0 1 1 0-1.9h9.4a.95.95 0 1 1 0 1.9h-9.4Zm4.7-6.65a.95.95 0 1 1 0-1.9h4.7a.95.95 0 0 1 0 1.9h-4.7Z" fill="#FF4361"/></svg>
